icons/core/unlock.svg

<svg width="32" height="32" viewBox="0 0 32 32" fill="none" xmlns="http://www.w3.org/2000/svg">
<path fill-rule="evenodd" clip-rule="evenodd" d="M15.9998 4.00003C13.2383 4.00003 10.9998 6.23861 10.9998 9.00003V14H15.9998V14H24.0053C25.1073 14.003 25.9998 14.8973 25.9998 16V28C25.9998 29.1046 25.1043 30 23.9998 30H7.99976C6.89519 30 5.99976 29.1046 5.99976 28V16C5.99976 14.8955 6.89519 14 7.99976 14H8.99976V9.00003C8.99976 5.13404 12.1338 2.00003 15.9998 2.00003C19.574 2.00003 22.5226 4.67894 22.9473 8.13846L20.9886 8.66328C20.8154 6.05889 18.648 4.00003 15.9998 4.00003ZM7.99976 16V28H23.9998V16H7.99976Z" fill="black"/>
</svg>

<svg viewBox="0 0 32 32" xmlns="http://www.w3.org/2000/svg"><path fill-rule="evenodd" d="M16 4a5 5 0 00-5 5v5h13.005A2 2 0 0126 16v12a2 2 0 01-2 2H8a2 2 0 01-2-2V16a2 2 0 012-2h1V9a7 7 0 0113.947-.862l-1.958.525A5 5 0 0015.999 4zM8 16v12h16V16H8z"/></svg>
